src/images/footer_icon_1.svg

<svg width="40" height="40" viewBox="0 0 40 40" fill="none" xmlns="http://www.w3.org/2000/svg">
<rect width="40" height="40" rx="20" fill="#15131D"/>
<g clip-path="url(#clip0_447_25737)">
<path d="M18.1033 28.0363V21.072H15.7129V17.8577H18.1033V15.613C18.1033 13.1679 19.6513 11.9648 21.8325 11.9648C22.8773 11.9648 23.7753 12.0426 24.037 12.0774V14.6327L22.5242 14.6334C21.3379 14.6334 21.07 15.1971 21.07 16.0243V17.8577H24.2843L23.2129 21.072H21.07V28.0363H18.1033Z" fill="#757185"/>
</g>
<defs>
<clipPath id="clip0_447_25737">
<rect width="17.1429" height="17.1429" fill="white" transform="translate(11.4277 11.4287)"/>
</clipPath>
</defs>
</svg>

<svg xmlns="http://www.w3.org/2000/svg" width="40" height="40" fill="none"><rect width="40" height="40" fill="#15131D" rx="20"/><g clip-path="url(#a)"><path fill="#757185" d="M18.103 28.036v-6.964h-2.39v-3.214h2.39v-2.245c0-2.445 1.548-3.648 3.73-3.648 1.044 0 1.942.078 2.204.112v2.556h-1.513c-1.186 0-1.454.564-1.454 1.391v1.834h3.214l-1.071 3.214H21.07v6.964h-2.967Z"/></g><defs><clipPath id="a"><path fill="#fff" d="M11.428 11.429H28.57v17.143H11.428z"/></clipPath></defs></svg>
